icons/twitch.svg

<svg aria-labelledby="simpleicons-twitch-icon" role="img" viewBox="0 0 24 24" xmlns="http://www.w3.org/2000/svg"><title id="simpleicons-twitch-icon">Twitch icon</title><path d="M2.089 0L.525 4.175v16.694h5.736V24h3.132l3.127-3.132h4.695l6.26-6.258V0H2.089zm2.086 2.085H21.39v11.479l-3.652 3.652H12l-3.127 3.127v-3.127H4.175V2.085z"/><path d="M9.915 12.522H12v-6.26H9.915v6.26zm5.735 0h2.086v-6.26H15.65v6.26z"/></svg>

<?xml version="1.0" standalone="no"?><!-- Generator: Gravit.io --><svg xmlns="http://www.w3.org/2000/svg" xmlns:xlink="http://www.w3.org/1999/xlink" style="isolation:isolate" viewBox="0 0 24 24" width="24" height="24"><path d=" M 2.089 0 L 0.525 4.175 L 0.525 20.869 L 6.261 20.869 L 6.261 24 L 9.393 24 L 12.52 20.868 L 17.215 20.868 L 23.475 14.61 L 23.475 0 L 2.089 0 L 2.089 0 L 2.089 0 Z  M 4.175 2.085 L 21.39 2.085 L 21.39 13.564 L 17.738 17.216 L 12 17.216 L 8.873 20.343 L 8.873 17.216 L 4.175 17.216 L 4.175 2.085 L 4.175 2.085 L 4.175 2.085 Z " fill="rgb(56,142,60)"/><path d=" M 9.915 12.522 L 12 12.522 L 12 6.262 L 9.915 6.262 L 9.915 12.522 L 9.915 12.522 L 9.915 12.522 Z  M 15.65 12.522 L 17.736 12.522 L 17.736 6.262 L 15.65 6.262 L 15.65 12.522 L 15.65 12.522 L 15.65 12.522 Z " fill="rgb(56,142,60)"/></svg>
